Numix-Circle/48x48/apps/syncthing-gtk.svg

<svg xmlns="http://www.w3.org/2000/svg" width="48" viewBox="0 0 13.546667 13.546667" height="48">
 <defs>
  <linearGradient id="linearGradient4033" x1="-27" x2="-24" gradientUnits="userSpaceOnUse">
   <stop style="stop-color:#24b2da;stop-opacity:1"/>
   <stop offset="1" style="stop-color:#36b9de;stop-opacity:1"/>
  </linearGradient>
 </defs>
 <g>
  <path d="m 25 2 c -12.703 0 -23 10.297 -23 23 0 6.367 2.601 12.12 6.781 16.281 4.085 3.712 9.514 5.969 15.469 5.969 c 12.703 0 23 -10.297 23 -23 0 -5.954 -2.256 -11.384 -5.969 -15.469 c -4.165 -4.181 -9.914 -6.781 -16.281 -6.781 z m 16.281 6.781 c 3.854 4.113 6.219 9.637 6.219 15.719 c 0 12.703 -10.297 23 -23 23 c -6.081 0 -11.606 -2.364 -15.719 -6.219 4.16 4.144 9.883 6.719 16.219 6.719 12.703 0 23 -10.297 23 -23 0 -6.335 -2.575 -12.06 -6.719 -16.219 z" transform="scale(0.28222223,0.28222223)" style="fill:#000;opacity:0.05;fill-opacity:1;stroke:none"/>
  <path d="m 41.28 8.781 c 3.712 4.085 5.969 9.514 5.969 15.469 c 0 12.703 -10.297 23 -23 23 -5.954 0 -11.384 -2.256 -15.469 -5.969 c 4.113 3.854 9.637 6.219 15.719 6.219 c 12.703 0 23 -10.297 23 -23 0 -6.081 -2.364 -11.606 -6.219 -15.719 z" transform="scale(0.28222223,0.28222223)" style="fill:#000;opacity:0.1;fill-opacity:1;stroke:none"/>
  <path transform="matrix(4.3274074,0,0,3.2455556,117.19278,-35.348334)" d="m -24 13 a 1.5 2 0 1 1 -3 0 1.5 2 0 1 1 3 0 z" style="fill:#000;opacity:0.2;fill-opacity:1;stroke:none"/>
 </g>
 <g>
  <path d="m -24 13 a 1.5 2 0 1 1 -3 0 1.5 2 0 1 1 3 0 z" transform="matrix(0,-4.3274075,3.2455556,0,-35.418894,-103.57556)" style="fill:url(#linearGradient4033);fill-opacity:1;stroke:none"/>
  <path d="m 40.03 7.531 c 3.712 4.085 5.969 9.514 5.969 15.469 c 0 12.703 -10.297 23 -23 23 c -5.954 0 -11.384 -2.256 -15.469 -5.969 c 4.178 4.291 10.01 6.969 16.469 6.969 c 12.703 0 23 -10.297 23 -23 c 0 -6.462 -2.677 -12.291 -6.969 -16.469 z" transform="scale(0.28222223,0.28222223)" style="fill:#000;opacity:0.1;fill-opacity:1;stroke:none"/>
 </g>
 <g>
  <g>
   <path d="m 7.02 2.822 c -2.257 0 -4.092 1.835 -4.092 4.092 0 0.086 0.003 0.171 0.009 0.256 -0.233 0.134 -0.392 0.385 -0.392 0.674 0 0.424 0.337 0.766 0.759 0.776 0.647 1.408 2.068 2.387 3.717 2.387 0.73 0 1.418 -0.192 2.01 -0.529 0.122 0.08 0.269 0.128 0.426 0.128 0.429 0 0.784 -0.346 0.784 -0.776 0 -0.107 -0.029 -0.214 -0.068 -0.307 0 -0.002 0 -0.006 0 -0.009 0.584 -0.708 0.938 -1.613 0.938 -2.6 0 -0.377 -0.058 -0.744 -0.153 -1.091 0.162 -0.142 0.264 -0.356 0.264 -0.588 0 -0.429 -0.346 -0.776 -0.776 -0.776 -0.051 0 -0.105 0.008 -0.153 0.017 c -0.747 -1 -1.933 -1.654 -3.274 -1.654 z m 0 0.546 c 1.155 0 2.141 0.573 2.779 1.432 -0.084 0.124 -0.136 0.274 -0.136 0.435 0 0.079 0.021 0.158 0.043 0.23 l -1.509 1.304 c -0.117 -0.071 -0.254 -0.111 -0.401 -0.111 c -0.359 0 -0.653 0.24 -0.742 0.571 l -3.044 0.247 c -0.106 -0.2 -0.293 -0.352 -0.52 -0.401 c -0.004 -0.054 -0.017 -0.107 -0.017 -0.162 0 -1.961 1.586 -3.547 3.547 -3.547 z m 3.03 2.532 c 0.115 0.069 0.248 0.109 0.392 0.111 0.079 0.289 0.128 0.59 0.128 0.904 0 0.839 -0.298 1.602 -0.784 2.208 -0.098 -0.044 -0.21 -0.068 -0.324 -0.068 -0.066 0 -0.126 0.002 -0.188 0.017 l -0.827 -1.202 c 0 -0.002 0 -0.006 0 -0.009 c 0.081 -0.123 0.128 -0.268 0.128 -0.426 c 0 -0.085 -0.009 -0.171 -0.034 -0.247 l 1.509 -1.287 z m -2.941 1.876 c 0.127 0.256 0.386 0.435 0.691 0.435 0.069 0 0.141 -0.009 0.205 -0.026 l 0.818 1.211 c -0.084 0.124 -0.136 0.274 -0.136 0.435 0 0.051 0.008 0.097 0.017 0.145 -0.497 0.293 -1.059 0.486 -1.68 0.486 -1.418 0 -2.623 -0.837 -3.189 -2.038 0.119 -0.104 0.209 -0.242 0.247 -0.401 l 3.03 -0.247 z" style="fill:#000;fill-opacity:0.098;stroke:none;fill-rule:evenodd"/>
   <path d="m 6.734 2.54 c -2.257 0 -4.092 1.835 -4.092 4.092 0 0.086 0.003 0.171 0.009 0.256 -0.233 0.134 -0.392 0.385 -0.392 0.674 0 0.424 0.337 0.766 0.759 0.776 0.647 1.408 2.068 2.387 3.717 2.387 0.73 0 1.418 -0.192 2.01 -0.529 0.122 0.08 0.269 0.128 0.426 0.128 0.429 0 0.784 -0.346 0.784 -0.776 0 -0.107 -0.029 -0.214 -0.068 -0.307 0 -0.002 0 -0.006 0 -0.009 0.584 -0.708 0.938 -1.613 0.938 -2.6 0 -0.377 -0.058 -0.744 -0.153 -1.091 0.162 -0.142 0.264 -0.356 0.264 -0.588 0 -0.429 -0.346 -0.776 -0.776 -0.776 -0.051 0 -0.105 0.008 -0.153 0.017 c -0.747 -1 -1.933 -1.654 -3.274 -1.654 z m 0 0.546 c 1.155 0 2.141 0.573 2.779 1.432 -0.084 0.124 -0.136 0.274 -0.136 0.435 0 0.079 0.021 0.158 0.043 0.23 l -1.509 1.304 c -0.117 -0.071 -0.254 -0.111 -0.401 -0.111 c -0.359 0 -0.653 0.24 -0.742 0.571 l -3.044 0.247 c -0.106 -0.2 -0.293 -0.352 -0.52 -0.401 c -0.004 -0.054 -0.017 -0.107 -0.017 -0.162 0 -1.961 1.586 -3.547 3.547 -3.547 z m 3.03 2.532 c 0.115 0.069 0.248 0.109 0.392 0.111 0.079 0.289 0.128 0.59 0.128 0.904 0 0.839 -0.298 1.602 -0.784 2.208 -0.098 -0.044 -0.21 -0.068 -0.324 -0.068 -0.066 0 -0.126 0.002 -0.188 0.017 l -0.827 -1.202 c 0 -0.002 0 -0.006 0 -0.009 0.081 -0.123 0.128 -0.268 0.128 -0.426 0 -0.085 -0.009 -0.171 -0.034 -0.247 l 1.509 -1.287 z m -2.941 1.876 c 0.127 0.256 0.386 0.435 0.691 0.435 0.069 0 0.141 -0.009 0.205 -0.026 l 0.818 1.211 c -0.084 0.124 -0.136 0.274 -0.136 0.435 0 0.051 0.008 0.097 0.017 0.145 -0.497 0.293 -1.059 0.486 -1.68 0.486 -1.418 0 -2.623 -0.837 -3.189 -2.038 c 0.119 -0.104 0.209 -0.242 0.247 -0.401 l 3.03 -0.247 z" style="fill:#f9f9f9;fill-opacity:1;stroke:none;fill-rule:evenodd"/>
  </g>
 </g>
</svg>

<svg xmlns="http://www.w3.org/2000/svg" viewBox="0 0 48 48">
 <defs>
  <linearGradient id="linearGradient3764" x1="1" x2="47" gradientUnits="userSpaceOnUse" gradientTransform="matrix(0,-1,1,0,-1.5e-6,47.999998)">
   <stop style="stop-color:#24b2da;stop-opacity:1"/>
   <stop offset="1" style="stop-color:#34b8de;stop-opacity:1"/>
  </linearGradient>
 </defs>
 <g>
  <path d="m 36.31 5 c 5.859 4.062 9.688 10.831 9.688 18.5 c 0 12.426 -10.07 22.5 -22.5 22.5 c -7.669 0 -14.438 -3.828 -18.5 -9.688 c 1.037 1.822 2.306 3.499 3.781 4.969 c 4.085 3.712 9.514 5.969 15.469 5.969 c 12.703 0 23 -10.298 23 -23 c 0 -5.954 -2.256 -11.384 -5.969 -15.469 c -1.469 -1.475 -3.147 -2.744 -4.969 -3.781 z m 4.969 3.781 c 3.854 4.113 6.219 9.637 6.219 15.719 c 0 12.703 -10.297 23 -23 23 c -6.081 0 -11.606 -2.364 -15.719 -6.219 c 4.16 4.144 9.883 6.719 16.219 6.719 c 12.703 0 23 -10.298 23 -23 c 0 -6.335 -2.575 -12.06 -6.719 -16.219 z" style="opacity:0.05"/>
  <path d="m 41.28 8.781 c 3.712 4.085 5.969 9.514 5.969 15.469 c 0 12.703 -10.297 23 -23 23 c -5.954 0 -11.384 -2.256 -15.469 -5.969 c 4.113 3.854 9.637 6.219 15.719 6.219 c 12.703 0 23 -10.298 23 -23 c 0 -6.081 -2.364 -11.606 -6.219 -15.719 z" style="opacity:0.1"/>
  <path d="m 31.25 2.375 c 8.615 3.154 14.75 11.417 14.75 21.13 c 0 12.426 -10.07 22.5 -22.5 22.5 c -9.708 0 -17.971 -6.135 -21.12 -14.75 a 23 23 0 0 0 44.875 -7 a 23 23 0 0 0 -16 -21.875 z" style="opacity:0.2"/>
 </g>
 <g>
  <path d="m 24 1 c 12.703 0 23 10.297 23 23 c 0 12.703 -10.297 23 -23 23 -12.703 0 -23 -10.297 -23 -23 0 -12.703 10.297 -23 23 -23 z" style="fill:url(#linearGradient3764);fill-opacity:1"/>
 </g>
 <g>
  <path d="m 40.03 7.531 c 3.712 4.084 5.969 9.514 5.969 15.469 0 12.703 -10.297 23 -23 23 c -5.954 0 -11.384 -2.256 -15.469 -5.969 4.178 4.291 10.01 6.969 16.469 6.969 c 12.703 0 23 -10.298 23 -23 0 -6.462 -2.677 -12.291 -6.969 -16.469 z" style="opacity:0.1"/>
 </g>
 <g transform="matrix(3.543307,0,0,3.543307,-0.00433051,-0.00118015)">
  <g>
   <path d="M 7.02,2.822 C 4.763,2.822 2.928,4.657 2.928,6.914 2.928,7 2.931,7.085 2.937,7.17 2.704,7.304 2.545,7.555 2.545,7.844 c 0,0.424 0.337,0.766 0.759,0.776 0.647,1.408 2.068,2.387 3.717,2.387 0.73,0 1.418,-0.192 2.01,-0.529 0.122,0.08 0.269,0.128 0.426,0.128 0.429,0 0.784,-0.346 0.784,-0.776 0,-0.107 -0.029,-0.214 -0.068,-0.307 0,-0.002 0,-0.006 0,-0.009 0.584,-0.708 0.938,-1.613 0.938,-2.6 0,-0.377 -0.058,-0.744 -0.153,-1.091 0.162,-0.142 0.264,-0.356 0.264,-0.588 0,-0.429 -0.346,-0.776 -0.776,-0.776 -0.051,0 -0.105,0.008 -0.153,0.017 C 9.546,3.476 8.36,2.822 7.019,2.822 Z m 0,0.546 c 1.155,0 2.141,0.573 2.779,1.432 -0.084,0.124 -0.136,0.274 -0.136,0.435 0,0.079 0.021,0.158 0.043,0.23 L 8.197,6.769 C 8.08,6.698 7.943,6.658 7.796,6.658 7.437,6.658 7.143,6.898 7.054,7.229 L 4.01,7.476 C 3.904,7.276 3.717,7.124 3.49,7.075 3.486,7.021 3.473,6.968 3.473,6.913 3.473,4.952 5.059,3.366 7.02,3.366 Z M 10.05,5.9 c 0.115,0.069 0.248,0.109 0.392,0.111 0.079,0.289 0.128,0.59 0.128,0.904 0,0.839 -0.298,1.602 -0.784,2.208 C 9.688,9.079 9.576,9.055 9.462,9.055 9.396,9.055 9.336,9.057 9.274,9.072 L 8.447,7.87 c 0,-0.002 0,-0.006 0,-0.009 C 8.528,7.738 8.575,7.593 8.575,7.435 8.575,7.35 8.566,7.264 8.541,7.188 L 10.05,5.901 Z M 7.109,7.776 C 7.236,8.032 7.495,8.211 7.8,8.211 7.869,8.211 7.941,8.202 8.005,8.185 L 8.823,9.396 C 8.739,9.52 8.687,9.67 8.687,9.831 c 0,0.051 0.008,0.097 0.017,0.145 -0.497,0.293 -1.059,0.486 -1.68,0.486 C 5.606,10.462 4.401,9.625 3.835,8.424 3.954,8.32 4.044,8.182 4.082,8.023 l 3.03,-0.247 z" style="fill:#000;fill-opacity:0.098;stroke:none;fill-rule:evenodd"/>
   <path d="m 6.734,2.54 c -2.257,0 -4.092,1.835 -4.092,4.092 0,0.086 0.003,0.171 0.009,0.256 -0.233,0.134 -0.392,0.385 -0.392,0.674 0,0.424 0.337,0.766 0.759,0.776 0.647,1.408 2.068,2.387 3.717,2.387 0.73,0 1.418,-0.192 2.01,-0.529 0.122,0.08 0.269,0.128 0.426,0.128 0.429,0 0.784,-0.346 0.784,-0.776 0,-0.107 -0.029,-0.214 -0.068,-0.307 0,-0.002 0,-0.006 0,-0.009 0.584,-0.708 0.938,-1.613 0.938,-2.6 0,-0.377 -0.058,-0.744 -0.153,-1.091 0.162,-0.142 0.264,-0.356 0.264,-0.588 0,-0.429 -0.346,-0.776 -0.776,-0.776 -0.051,0 -0.105,0.008 -0.153,0.017 C 9.26,3.194 8.074,2.54 6.733,2.54 Z m 0,0.546 c 1.155,0 2.141,0.573 2.779,1.432 -0.084,0.124 -0.136,0.274 -0.136,0.435 0,0.079 0.021,0.158 0.043,0.23 L 7.911,6.487 C 7.794,6.416 7.657,6.376 7.51,6.376 7.151,6.376 6.857,6.616 6.768,6.947 L 3.724,7.194 C 3.618,6.994 3.431,6.842 3.204,6.793 3.2,6.739 3.187,6.686 3.187,6.631 3.187,4.67 4.773,3.084 6.734,3.084 Z m 3.03,2.532 c 0.115,0.069 0.248,0.109 0.392,0.111 0.079,0.289 0.128,0.59 0.128,0.904 0,0.839 -0.298,1.602 -0.784,2.208 C 9.402,8.797 9.29,8.773 9.176,8.773 9.11,8.773 9.05,8.775 8.988,8.79 L 8.161,7.588 c 0,-0.002 0,-0.006 0,-0.009 C 8.242,7.456 8.289,7.311 8.289,7.153 8.289,7.068 8.28,6.982 8.255,6.906 L 9.764,5.619 Z M 6.823,7.494 C 6.95,7.75 7.209,7.929 7.514,7.929 7.583,7.929 7.655,7.92 7.719,7.903 L 8.537,9.114 C 8.453,9.238 8.401,9.388 8.401,9.549 8.401,9.6 8.409,9.646 8.418,9.694 7.921,9.987 7.359,10.18 6.738,10.18 5.32,10.18 4.115,9.343 3.549,8.142 3.668,8.038 3.758,7.9 3.796,7.741 l 3.03,-0.247 z" style="fill:#f9f9f9;fill-opacity:1;stroke:none;fill-rule:evenodd"/>
  </g>
 </g>
</svg>
